X: 23479
T: Lewis Lilt
R: polka
M: 2/4
K: Gmajor
DG B>B|cc B2|BA A>B|AG G2:|
dd dB|cc B2|BA A>B|AG G2:|

